logos/wayscript-icon.svg

<?xml version="1.0" encoding="UTF-8"?>
<svg width="256px" height="221px" viewBox="0 0 256 221" version="1.1" xmlns="http://www.w3.org/2000/svg" preserveAspectRatio="xMidYMid">
    <title>WayScript</title>
    <g>
        <path d="M222.16822,45.8034144 L222.797009,47.590806 C225.985408,56.4360412 230.408025,72.4166044 232.220784,79.3205162 L233.535956,78.4701043 C240.494209,74.0455061 252.852971,67.2981316 255.516666,70.1667262 C259.065045,73.9979473 242.145961,142.265679 235.100628,145.376939 L232.026012,170.206917 C231.691011,172.848579 231.342443,175.543499 230.984371,178.229311 L230.25676,183.570312 L229.166063,191.080701 C227.389844,202.765373 225.550873,211.997077 224.069797,212.320456 C223.807526,211.016813 223.637821,209.611346 223.499588,208.134603 L223.246985,205.095133 C223.054138,202.562413 222.848435,199.901129 222.411316,197.29127 L222.146674,195.924783 C221.338675,192.253448 219.602896,188.406037 214.311754,185.411914 C208.80116,182.32034 201.615624,185.882768 191.928831,191.921284 L182.567581,197.873024 C181.296399,198.679766 179.99147,199.502579 178.647971,200.338248 C167.330013,207.340726 158.043227,211.133319 150.787614,213.906067 L148.563886,214.750325 C145.979741,215.727415 143.70415,216.601653 141.7114,217.475891 L140.872316,217.762349 L137.324416,219.088318 C135.538693,219.74221 133.801189,220.230426 130.99916,220.434275 L129.896326,220.497156 L126.103674,220.497156 C122.235052,220.333529 120.268335,219.702394 118.001215,218.835574 L115.900477,218.041575 C115.400682,217.858371 114.86714,217.668738 114.2886,217.475891 C112.6944,216.776501 110.910954,216.07711 108.944843,215.325059 L104.049883,213.45947 C96.9735899,210.725207 88.0743051,206.972175 77.3520286,200.338248 L73.4292053,197.873024 L65.1664525,192.60168 C54.9191363,186.152967 47.4045433,182.194588 41.7011022,185.411914 C35.7228545,188.780303 34.2829325,193.228633 33.6015408,197.29127 C33.2544167,199.248664 33.0591595,201.234985 32.9018689,203.1743 L32.7530153,205.095133 C32.5473122,207.679279 32.3673219,210.147717 31.9302027,212.3076 C30.0887029,211.905526 27.6939241,197.736866 25.5512573,182.200234 L25.0116119,178.222163 L23.9677518,170.199162 C23.4079998,165.795747 22.8856129,161.539714 22.4193325,157.719574 L21.1286008,147.152187 C21.0473001,146.510211 20.9707963,145.91691 20.8993716,145.376939 C13.8540388,142.265679 -3.06504491,73.9979473 0.483334351,70.1667262 C3.3374655,67.1068919 17.1967149,74.9878937 23.7792156,79.3205162 L25.0725788,74.4983922 C27.1049775,67.0492552 30.2273517,56.120512 32.7395245,48.8995342 L33.202991,47.590806 C45.7765957,11.4384781 59.2758647,-0.376596298 64.9327012,0.00909710016 C67.2082922,0.176230906 68.2239515,1.59044003 67.5425598,5.06168062 L66.9251799,8.29556262 C64.780778,19.9844725 63.9242072,29.7582289 63.5391652,35.6394532 L63.2181835,41.1787001 C63.1960314,41.4391275 63.1732046,41.5831721 63.1456551,41.5997019 C79.2908232,25.6208876 100.578148,15.9253546 123.183716,14.2081346 L125.242292,14.0740497 L130.770564,14.0740497 C154.130832,15.3497017 176.213593,25.142409 192.841488,41.5997019 C192.819449,41.5831721 192.799771,41.4414889 192.779418,41.1817362 L192.455898,35.6328707 C192.032561,29.2235721 191.059585,18.1752562 188.45744,5.06168062 C187.776048,1.59044003 188.791708,0.163374459 191.067299,0.00909710016 C196.629855,-0.370168075 209.788039,11.0480314 222.16822,45.8034144 Z M199.886821,135.837455 C195.232788,136.300288 183.983397,140.465776 171.036955,149.323868 C151.289453,162.823137 145.066933,172.169774 144.025561,176.322406 C143.228461,179.497948 142.997045,182.904906 142.984189,184.421967 C142.984189,184.550532 143.074184,184.640527 143.202748,184.640527 C150.915664,184.591006 164.875578,181.692186 178.779857,175.03713 L180.383592,174.252518 C193.865719,167.511454 195.691423,165.491296 197.179535,162.527677 L198.035493,160.753249 C199.044102,158.736031 199.593906,152.5461 199.871599,146.442945 L199.913211,145.480631 C200.057697,141.959345 200.11427,138.542286 200.11916,136.056015 C200.122595,135.9945 200.099123,135.934275 200.054289,135.891931 C200.009454,135.849587 199.947987,135.829593 199.886821,135.837455 Z M56.1388917,135.824599 C56.075265,135.815994 56.0112694,135.837592 55.965869,135.882992 C55.9204685,135.928393 55.8988707,135.992388 55.9074757,136.056015 L55.9276922,138.865813 C55.9558562,140.932748 56.0152355,143.30441 56.1168657,145.715947 L56.1569791,146.621624 C56.164002,146.77271 56.1711952,146.923822 56.1785616,147.074895 L56.2248591,147.980361 C56.5234369,153.554856 57.0664001,158.89997 57.99022,160.740393 L58.4401956,161.69177 C58.6258999,162.077463 58.8011285,162.441729 58.986092,162.794655 L59.2733648,163.316801 L59.5903979,163.829502 C61.1629053,166.211842 64.2027407,168.532828 75.6421212,174.252518 C90.0541978,181.452128 104.813399,184.589101 112.835821,184.640527 C112.951529,184.640527 113.041524,184.550532 113.041524,184.421967 C112.9824,181.69361 112.637681,178.978948 112.013009,176.322406 L111.833156,175.709365 C110.362398,171.291335 103.818369,162.195264 85.0016143,149.323868 C72.0423162,140.45292 60.7929254,136.300288 56.1388917,135.824599 Z" fill="#5645BD"></path>
    </g>
</svg>

<svg preserveAspectRatio="xMidYMid" viewBox="0 0 256 221" xmlns="http://www.w3.org/2000/svg">
  <path fill="#5645BD" d="m222.168 45.803.629 1.788c3.188 8.845 7.611 24.826 9.424 31.73l1.315-.85c6.958-4.425 19.317-11.173 21.98-8.304 3.549 3.83-13.37 72.099-20.415 75.21l-3.075 24.83c-.335 2.642-.684 5.336-1.042 8.022l-.727 5.341-1.09 7.51c-1.777 11.685-3.616 20.917-5.097 21.24-.262-1.303-.432-2.709-.57-4.185l-.253-3.04c-.193-2.533-.399-5.194-.836-7.804l-.264-1.366c-.808-3.672-2.544-7.519-7.835-10.513-5.51-3.092-12.696.47-22.383 6.51l-9.361 5.951a509.87 509.87 0 0 1-3.92 2.465c-11.318 7.003-20.605 10.795-27.86 13.568l-2.224.844c-2.584.977-4.86 1.852-6.853 2.726l-.839.286-3.548 1.326c-1.785.654-3.523 1.142-6.325 1.346l-1.103.063h-3.792c-3.869-.163-5.836-.795-8.103-1.661l-2.1-.794c-.5-.184-1.034-.373-1.612-.566-1.595-.7-3.378-1.399-5.344-2.15l-4.895-1.867c-7.076-2.734-15.976-6.487-26.698-13.12l-3.923-2.466-8.263-5.271c-10.247-6.449-17.761-10.407-23.465-7.19-5.978 3.368-7.418 7.817-8.1 11.88-.347 1.957-.542 3.943-.7 5.882l-.148 1.921c-.206 2.584-.386 5.053-.823 7.213-1.841-.402-4.236-14.571-6.379-30.108l-.54-3.978-1.043-8.023c-.56-4.403-1.082-8.66-1.549-12.48l-1.29-10.567c-.082-.642-.158-1.235-.23-1.775-7.045-3.111-23.964-71.38-20.416-75.21 2.854-3.06 16.714 4.82 23.296 9.154l1.294-4.823c2.032-7.449 5.154-18.377 7.667-25.598l.463-1.31C45.777 11.439 59.276-.376 64.933.01c2.275.166 3.291 1.58 2.61 5.052l-.618 3.234a238.841 238.841 0 0 0-3.386 27.343l-.32 5.54c-.023.26-.046.404-.073.42a95.652 95.652 0 0 1 60.038-27.39l2.058-.135h5.529A95.652 95.652 0 0 1 192.84 41.6c-.022-.017-.041-.159-.062-.418l-.323-5.55c-.423-6.408-1.396-17.457-3.999-30.57-.681-3.472.335-4.899 2.61-5.053 5.563-.38 18.721 11.039 31.101 45.794Zm-22.281 90.034c-4.654.463-15.904 4.629-28.85 13.487-19.748 13.5-25.97 22.846-27.011 26.998-.798 3.176-1.029 6.583-1.042 8.1 0 .129.09.219.219.219 7.713-.05 21.673-2.949 35.577-9.604l1.604-.784c13.482-6.742 15.307-8.762 16.796-11.725l.855-1.775c1.01-2.017 1.559-8.207 1.837-14.31l.041-.962c.145-3.522.201-6.939.206-9.425a.206.206 0 0 0-.232-.219Zm-143.748-.012a.206.206 0 0 0-.232.231l.02 2.81c.029 2.067.088 4.438.19 6.85l.04.906.022.453.046.905c.298 5.575.841 10.92 1.765 12.76l.45.952c.186.385.361.75.546 1.103l.287.522.317.513c1.573 2.382 4.613 4.703 16.052 10.423 14.412 7.2 29.171 10.336 37.194 10.388.116 0 .206-.09.206-.219a39.084 39.084 0 0 0-1.029-8.1l-.18-.613c-1.47-4.418-8.015-13.514-26.831-26.385-12.96-8.871-24.21-13.024-28.863-13.5Z"/>
</svg>
